images_sukapura_svg/cmd/lc_closedoc.svg

<svg viewBox="0 0 24 24" xmlns="http://www.w3.org/2000/svg" xmlns:xlink="http://www.w3.org/1999/xlink"><radialGradient id="a" cx="10.994179" cy="4.42844" gradientTransform="matrix(1.4 .00000004 -.00000001 1.2 -4.39185 -2.314129)" gradientUnits="userSpaceOnUse" r="5"><stop offset="0" stop-color="#d7d7d7"/><stop offset=".49894297" stop-color="#f7f7f7"/><stop offset="1" stop-color="#fff"/></radialGradient><linearGradient id="b" gradientUnits="userSpaceOnUse" x1="10" x2="11.500001" y1="4" y2="2.499999"><stop offset="0" stop-color="#fff"/><stop offset=".77967989" stop-color="#f1f1f1"/><stop offset="1" stop-color="#d5d5d5"/></linearGradient><linearGradient id="c" gradientUnits="userSpaceOnUse" x1="77" x2="77" y1="11" y2="3"><stop offset="0" stop-color="#0040dd"/><stop offset="1" stop-color="#0a84ff"/></linearGradient><linearGradient id="d" gradientUnits="userSpaceOnUse" x1="11" x2="11" y1="7" y2="21"><stop offset="0" stop-color="#68caf8"/><stop offset=".5" stop-color="#70cef9"/><stop offset=".71428573" stop-color="#79d3fb"/><stop offset=".9285714" stop-color="#67c1ed"/><stop offset="1" stop-color="#67bfea"/></linearGradient><g fill-rule="evenodd" transform="translate(.021484 2)"><path d="m15 4.5c-.265199.0000511-.519519.1054326-.707031.2929688l-3.707031 1.7070312h-8.085938c-.5522619.0000552-1.0214292.4477381-1.0214844 1l.0214844 13h1 17 .978516l.021484-11v-4c-.000055-.5522619-.447738-.9999448-1-1z" fill="#94ddff" stroke="#2bbcff"/><path d="m1.4785156 20.5h1 17.0644534.935547l.021484-11c-.021484-.5.298232-.9921291-.744141-.992188l-16.7666402-.0009478c-1.0211864-.0000577-1.2541689.0003958-1.5126567.9911818z" fill="url(#d)" stroke="#15b0f5"/><g fill="#3bc1f1"><path d="m1.4368875 19.000786-.4583719-.000786v.5l.460325.000834h19.0039064c.132308-.0017 1.023959.01237.535769-.000834v-.5l-.537722.000786z"/><path d="m.9785156 20 .0136715.5059h.4550781 19.1640628l.367188-.0059-.0293-.500041-.503906.002h-19.16406z"/></g></g><g transform="translate(9 1)"><path d="m5 1v11h8v-8.2949219l-2.695312-2.7050781z" fill="url(#a)"/><path d="m5 0c-.554 0-1 .446-1 1v11c0 .554.446 1 1 1h8c.554 0 1-.446 1-1v-7.5-.8632812l-3.636719-3.6367188h-.863281zm0 1h4v3.5c0 .277.223.5.5.5h3.5v7h-8zm5 0 3 3h-3z" fill="#98989d"/><path d="m10 1 3 3h-3z" fill="url(#b)"/><g transform="translate(1)"><path d="m3.7988281 9.6152344c-.3028431 0-.6057292.1135412-.8320312.3398437l-2.35156252 2.3496099-1.2890625-1.289063c-.32676038-.326533-.85641468-.43263-1.28320308-.255859-.4267885.17677-.7244276.625942-.7246094 1.08789v5.658203c.0000616.616047.5597348 1.17572 1.1757812 1.175782h5.6582032c.4619477-.000182.9111201-.297822 1.0878906-.72461.1767704-.426788.070673-.956442-.2558594-1.283203l-1.2890625-1.289062 2.3496094-2.351563c.4526036-.452604.4526032-1.211458 0-1.664062l-1.4140625-1.4140629c-.2263021-.2263025-.5291882-.3398437-.8320313-.3398437z" fill="#fff" fill-opacity=".784314"/><path d="m4.1516166 10.434122c-.1958686-.195869-.5112382-.195869-.7071068 0l-2.8284271 2.828427-1.767767-1.767767a.50005.50005 0 0 0 -.8535002.353554v5.656854a.50005.50005 0 0 0 .4999466.499946l5.6568545.000001a.50005.50005 0 0 0 .3535534-.853501l-1.767767-1.767767 2.8284272-2.828427c.1958685-.195868.1958685-.511238 0-.707107z" fill="url(#c)"/></g></g></svg>

<?xml version="1.0" encoding="UTF-8" standalone="no"?>
<svg
   xmlns:dc="http://purl.org/dc/elements/1.1/"
   xmlns:cc="http://creativecommons.org/ns#"
   xmlns:rdf="http://www.w3.org/1999/02/22-rdf-syntax-ns#"
   xmlns:svg="http://www.w3.org/2000/svg"
   xmlns="http://www.w3.org/2000/svg"
   xmlns:xlink="http://www.w3.org/1999/xlink"
   xmlns:sodipodi="http://sodipodi.sourceforge.net/DTD/sodipodi-0.dtd"
   xmlns:inkscape="http://www.inkscape.org/namespaces/inkscape"
   viewBox="0 0 24 24"
   version="1.1"
   id="svg30"
   sodipodi:docname="lc_closedoc.svg"
   inkscape:version="0.92.3 (2405546, 2018-03-11)"
   inkscape:export-filename="/home/rizmut/Documents/Rizmut/Github/libreoffice-style-sukapura/images_sukapura/cmd/lc_closedoc.png"
   inkscape:export-xdpi="96"
   inkscape:export-ydpi="96">
  <metadata
     id="metadata36">
    <rdf:RDF>
      <cc:Work
         rdf:about="">
        <dc:format>image/svg+xml</dc:format>
        <dc:type
           rdf:resource="http://purl.org/dc/dcmitype/StillImage" />
        <dc:title></dc:title>
      </cc:Work>
    </rdf:RDF>
  </metadata>
  <defs
     id="defs34">
    <radialGradient
       id="b-3"
       cx="10.994179"
       cy="4.4284401"
       gradientTransform="matrix(1.4,4e-8,-1e-8,1.2,-4.39185,-2.314129)"
       gradientUnits="userSpaceOnUse"
       r="5">
      <stop
         offset="0"
         stop-color="#d7d7d7"
         id="stop9" />
      <stop
         offset=".49894297"
         stop-color="#f7f7f7"
         id="stop11" />
      <stop
         offset="1"
         stop-color="#fff"
         id="stop13" />
    </radialGradient>
    <linearGradient
       id="a-8"
       gradientUnits="userSpaceOnUse"
       x1="10"
       x2="11.500001"
       y1="4"
       y2="2.4999993">
      <stop
         offset="0"
         stop-color="#fff"
         id="stop2-0" />
      <stop
         offset=".77967989"
         stop-color="#f1f1f1"
         id="stop4-5" />
      <stop
         offset="1"
         stop-color="#d5d5d5"
         id="stop6-6" />
    </linearGradient>
    <linearGradient
       gradientTransform="translate(75,-7)"
       id="a-367"
       gradientUnits="userSpaceOnUse"
       x1="14"
       x2="13.79661"
       y1="22"
       y2="2.1355929">
      <stop
         offset="0"
         stop-color="#0040dd"
         id="stop2206" />
      <stop
         offset="1"
         stop-color="#0a84ff"
         id="stop2208" />
    </linearGradient>
    <linearGradient
       inkscape:collect="always"
       xlink:href="#a-367"
       id="linearGradient885"
       x1="2"
       y1="18"
       x2="2"
       y2="10"
       gradientUnits="userSpaceOnUse" />
  </defs>
  <sodipodi:namedview
     pagecolor="#ffffff"
     bordercolor="#666666"
     borderopacity="1"
     objecttolerance="10"
     gridtolerance="10"
     guidetolerance="10"
     inkscape:pageopacity="0"
     inkscape:pageshadow="2"
     inkscape:window-width="1366"
     inkscape:window-height="685"
     id="namedview32"
     showgrid="true"
     inkscape:zoom="16"
     inkscape:cx="13.907317"
     inkscape:cy="6.0732654"
     inkscape:window-x="0"
     inkscape:window-y="0"
     inkscape:window-maximized="1"
     inkscape:current-layer="g838">
    <inkscape:grid
       type="xygrid"
       id="grid857"
       spacingx="0.5"
       spacingy="0.5"
       empspacing="2" />
  </sodipodi:namedview>
  <linearGradient
     id="a"
     gradientUnits="userSpaceOnUse"
     x1="11"
     x2="11"
     y1="7"
     y2="21">
    <stop
       offset="0"
       stop-color="#68caf8"
       id="stop2" />
    <stop
       offset=".5"
       stop-color="#70cef9"
       id="stop4" />
    <stop
       offset=".71428573"
       stop-color="#79d3fb"
       id="stop6" />
    <stop
       offset=".9285714"
       stop-color="#67c1ed"
       id="stop8" />
    <stop
       offset="1"
       stop-color="#67bfea"
       id="stop10" />
  </linearGradient>
  <clipPath
     id="b">
    <path
       d="m192.5 69.5h62v39h-62z"
       id="path13" />
  </clipPath>
  <g
     id="g26"
     transform="translate(0.0214844,2)"
     style="fill-rule:evenodd">
    <path
       d="m 15,4.5 c -0.265199,5.11e-5 -0.519519,0.1054326 -0.707031,0.2929688 L 10.585938,6.5 H 2.5 c -0.5522619,5.52e-5 -1.0214292,0.4477381 -1.0214844,1 L 1.5,20.5 h 1 17 0.978516 L 20.5,9.5 v -4 c -5.5e-5,-0.5522619 -0.447738,-0.9999448 -1,-1 z"
       id="path16"
       inkscape:connector-curvature="0"
       style="fill:#94ddff;stroke:#2bbcff"
       sodipodi:nodetypes="ccccccccccccc" />
    <path
       d="m 1.4785156,20.5 h 1 17.0644534 0.935547 L 20.5,9.5 C 20.478516,9 20.798232,8.5078709 19.755859,8.507812 L 2.9892188,8.5068642 C 1.9680324,8.5068065 1.7350499,8.50726 1.4765621,9.498046 Z"
       id="path18"
       inkscape:connector-curvature="0"
       style="fill:url(#a);stroke:#15b0f5"
       sodipodi:nodetypes="cccccsscc" />
    <g
       id="g24"
       style="fill:#3bc1f1">
      <path
         d="M 1.4368875,19.000786 0.9785156,19 v 0.5 l 0.460325,8.34e-4 H 20.442747 c 0.132308,-0.0017 1.023959,0.01237 0.535769,-8.34e-4 l 0,-0.5 -0.537722,7.86e-4 z"
         id="path20"
         inkscape:connector-curvature="0"
         sodipodi:nodetypes="ccccccccc" />
      <path
         d="m 0.9785156,20 0.0136715,0.5059 H 1.4472652 20.611328 l 0.367188,-0.0059 -0.0293,-0.500041 -0.503906,0.002 H 1.28125 Z"
         id="path22"
         inkscape:connector-curvature="0"
         sodipodi:nodetypes="ccccccccc" />
    </g>
  </g>
  <g
     transform="translate(9,1)"
     id="g838">
    <path
       style="fill:url(#b-3)"
       inkscape:connector-curvature="0"
       id="path16-6"
       d="m 5,1 v 11 h 8 V 3.7050781 L 10.304688,1 Z"
       sodipodi:nodetypes="cccccc" />
    <path
       style="fill:#98989d"
       inkscape:connector-curvature="0"
       id="path18-4"
       d="M 5,0 C 4.446,0 4,0.446 4,1 v 11 c 0,0.554 0.446,1 1,1 h 8 c 0.554,0 1,-0.446 1,-1 V 4.5 3.6367188 L 10.363281,0 H 9.5 Z M 5,1 H 9 V 4.5 C 9,4.777 9.223,5 9.5,5 H 13 v 7 H 5 Z m 5,0 3,3 h -3 z"
       sodipodi:nodetypes="ssssssccccsccsscccccccc" />
    <path
       style="fill:url(#a-8)"
       inkscape:connector-curvature="0"
       id="path20-0"
       d="m 10,1 3,3 h -3 z"
       sodipodi:nodetypes="cccc" />
    <g
       id="g913"
       transform="translate(1)">
      <path
         id="path887"
         d="m 3.7988281,9.6152344 c -0.3028431,0 -0.6057292,0.1135412 -0.8320312,0.3398437 l -2.35156252,2.3496099 -1.2890625,-1.289063 c -0.32676038,-0.326533 -0.85641468,-0.43263 -1.28320308,-0.255859 -0.4267885,0.17677 -0.7244276,0.625942 -0.7246094,1.08789 v 5.658203 c 6.16e-5,0.616047 0.5597348,1.17572 1.1757812,1.175782 h 5.6582032 c 0.4619477,-1.82e-4 0.9111201,-0.297822 1.0878906,-0.72461 0.1767704,-0.426788 0.070673,-0.956442 -0.2558594,-1.283203 L 3.6953125,15.384766 6.0449219,13.033203 c 0.4526036,-0.452604 0.4526032,-1.211458 0,-1.664062 L 4.6308594,9.9550781 C 4.4045573,9.7287756 4.1016712,9.6152344 3.7988281,9.6152344 Z"
         style="fill:#ffffff;fill-opacity:0.78431373;stroke:none;stroke-width:1px;stroke-linecap:butt;stroke-linejoin:miter;stroke-opacity:1"
         inkscape:connector-curvature="0" />
      <path
         inkscape:connector-curvature="0"
         id="path854"
         d="m 4.1516166,10.434122 c -0.1958686,-0.195869 -0.5112382,-0.195869 -0.7071068,0 l -2.8284271,2.828427 -1.767767,-1.767767 a 0.50005,0.50005 0 0 0 -0.8535002,0.353554 v 5.656854 a 0.50005,0.50005 0 0 0 0.4999466,0.499946 l 5.6568545,1e-6 A 0.50005,0.50005 0 0 0 4.50517,17.151636 L 2.737403,15.383869 5.5658302,12.555442 c 0.1958685,-0.195868 0.1958685,-0.511238 0,-0.707107 z"
         style="fill:url(#linearGradient885);fill-opacity:1;stroke:none;stroke-width:1px;stroke-linecap:butt;stroke-linejoin:miter;stroke-opacity:1" />
    </g>
  </g>
</svg>
